X: 10598
T: Dougarry Boys, The
R: jig
M: 6/8
K: Gmajor
def gag|fed {g}edB|def gag|fed {g}e2 c|
def gag|fed {g}efg|B2 A ~G2A|Bee {g}edB|
def g2{a}g|fed {g}edB|def gag|{fg}fed (3ege c|
def gag|{fg}fed {g}efg|B2 A G2A|Bee edB|
|:dBB gBB|dBB BAG|dBB gBB|ABd efg|
dBB gBB|dBB BAG|B2 A G2A|1 Bee edB:|2 Bee e3||

